Numix-GalliumOS/16/mimetypes/text-x-iptables.svg

<?xml version="1.0" encoding="UTF-8" standalone="no"?>
<svg
   xmlns:dc="http://purl.org/dc/elements/1.1/"
   xmlns:cc="http://creativecommons.org/ns#"
   xmlns:rdf="http://www.w3.org/1999/02/22-rdf-syntax-ns#"
   xmlns:svg="http://www.w3.org/2000/svg"
   xmlns="http://www.w3.org/2000/svg"
   xmlns:sodipodi="http://sodipodi.sourceforge.net/DTD/sodipodi-0.dtd"
   xmlns:inkscape="http://www.inkscape.org/namespaces/inkscape"
   width="16"
   height="16"
   viewBox="0 0 16 16"
   id="svg2992"
   version="1.1"
   inkscape:version="0.91 r13725"
   sodipodi:docname="text-x-iptables.svg">
  <metadata
     id="metadata3006">
    <rdf:RDF>
      <cc:Work
         rdf:about="">
        <dc:format>image/svg+xml</dc:format>
        <dc:type
           rdf:resource="http://purl.org/dc/dcmitype/StillImage" />
        <dc:title />
      </cc:Work>
    </rdf:RDF>
  </metadata>
  <defs
     id="defs3004" />
  <sodipodi:namedview
     pagecolor="#ffffff"
     bordercolor="#666666"
     borderopacity="1"
     objecttolerance="10"
     gridtolerance="10"
     guidetolerance="10"
     inkscape:pageopacity="0"
     inkscape:pageshadow="2"
     inkscape:window-width="1366"
     inkscape:window-height="717"
     id="namedview3002"
     showgrid="false"
     inkscape:zoom="16"
     inkscape:cx="-0.1423864"
     inkscape:cy="7.3714791"
     inkscape:window-x="0"
     inkscape:window-y="26"
     inkscape:window-maximized="1"
     inkscape:current-layer="svg2992">
    <inkscape:grid
       type="xygrid"
       id="grid3053" />
  </sodipodi:namedview>
  <path
     style="fill:#2d2d2d;fill-opacity:1"
     d="M 2.667969,-4.46e-4 C 2.324219,-4.46e-4 2,0.337812 2,0.6964467 L 2,15.303108 C 2,15.641365 2.34375,16 2.667969,16 l 10.664062,0 C 13.65625,16 14,15.641365 14,15.303108 l 0,-11.303554 -4.0000005,-4 z"
     id="path4"
     inkscape:connector-curvature="0"
     sodipodi:nodetypes="ssssssccs" />
  <path
     style="fill:#000000;fill-opacity:0.19599998"
     d="m 10.583223,3.331585 0.0154,0.019531 0.04005,-0.019531 z m 0.02978,0.667969 3.386999,3.664062 0,-3.664062 z"
     id="path6"
     inkscape:connector-curvature="0"
     sodipodi:nodetypes="cccccccc" />
  <path
     style="fill:#ffffff;fill-opacity:0.39200003"
     d="m 9.9999995,-4.46e-4 3.9963965,4 -3.383784,0 c -0.299099,0 -0.6126125,-0.3171171 -0.6126125,-0.6162164 z"
     id="path8"
     inkscape:connector-curvature="0"
     sodipodi:nodetypes="ccssc" />
  <path
     inkscape:connector-curvature="0"
     style="fill:#ef9815;fill-opacity:1;fill-rule:nonzero;stroke:none"
     d="m 7.007279,5.0000001 c -0.1443097,0.2072997 -0.261216,0.918042 0.1561263,1.2693743 0.4930173,0.4207917 0.5981073,0.9263873 0.5981073,1.69205 0,1.076882 -0.8495186,1.9391946 -0.2514113,2.9614246 C 5.8404797,9.4504827 7.5229213,7.2409907 6.2530457,6.3461021 6.755868,7.6922044 4.9959894,8.4998654 5.000012,9.806123 4.9959887,11.19207 6.0016344,11.999731 7.2086596,11.99677 6.3483304,11.622284 5.957386,10.491827 6.0016344,9.8462367 6.6065297,11.314296 7.5101013,12 9.0185686,12 8.4370546,11.186954 8.3420213,11.084112 8.3085833,10.56667 c 0.003,-0.477327 0.182776,-0.5836693 0.49704,-1.1810696 C 9.5963116,8.0572667 9.2347823,6.7165494 8.158491,6.0908814 7.9395116,5.9740398 7.8806816,5.9414641 7.4819433,5.7742778 7.2521536,5.6595898 7.0233693,5.4102918 7.0075306,5.0002691 m 2.6968877,2.249337 C 10.501895,8.3423717 9.5935463,9.229722 9.1769576,9.8987347 8.83529,10.424522 9.1641376,11.294373 9.5216426,12 9.5530693,11.403677 9.9244029,10.993654 10.22484,10.780162 11.145005,10.038729 11.17442,9.0692664 10.686431,8.2066844 10.37996,7.7333947 10.108939,7.5799391 9.7044183,7.2496061 m 0,0"
     id="path64" />
</svg>

<svg xmlns="http://www.w3.org/2000/svg" viewBox="0 0 16 16">
 <path d="m 2.668 0 c -0.344 0 -0.668 0.338 -0.668 0.697 l 0 14.607 c 0 0.338 0.344 0.697 0.668 0.697 l 10.664 0 c 0.324 0 0.668 -0.359 0.668 -0.697 l 0 -11.304 -4 -4 z" style="fill:#2d2d2d;fill-opacity:1"/>
 <path d="m 10.583 3.332 0.015 0.02 0.04 -0.02 z m 0.03 0.668 3.387 3.664 0 -3.664 z" style="fill:#000;fill-opacity:0.196"/>
 <path d="m 10 0 3.996 4 -3.384 0 c -0.299 0 -0.613 -0.317 -0.613 -0.616 z" style="fill:#fff;fill-opacity:0.392"/>
 <path d="m 7.01 5 c -0.144 0.207 -0.261 0.918 0.156 1.269 0.493 0.421 0.598 0.926 0.598 1.692 0 1.077 -0.85 1.939 -0.251 2.961 c -1.67 -1.472 0.013 -3.682 -1.257 -4.577 0.503 1.346 -1.257 2.154 -1.253 3.46 -0.004 1.386 1 2.194 2.209 2.191 -0.86 -0.374 -1.251 -1.505 -1.207 -2.151 0.605 1.468 1.508 2.154 3.02 2.154 -0.582 -0.813 -0.677 -0.916 -0.71 -1.433 c 0.003 -0.477 0.183 -0.584 0.497 -1.181 c 0.791 -1.328 0.429 -2.669 -0.647 -3.295 -0.219 -0.117 -0.278 -0.149 -0.677 -0.317 -0.23 -0.115 -0.459 -0.364 -0.474 -0.774 m 2.697 2.249 c 0.797 1.093 -0.111 1.98 -0.527 2.649 -0.342 0.526 -0.013 1.396 0.345 2.101 0.031 -0.596 0.403 -1.01 0.703 -1.22 0.92 -0.741 0.95 -1.711 0.462 -2.573 -0.306 -0.473 -0.577 -0.627 -0.982 -0.957 m 0 0" style="fill:#ef9815;fill-opacity:1;stroke:none;fill-rule:nonzero"/>
</svg>
